src/assets/duotone/BrifecaseTick.svg

<svg width="24" height="24" viewBox="0 0 24 24"  xmlns="http://www.w3.org/2000/svg">
<path opacity="0.4" d="M21.8499 11.4102L21.2299 18.1902C21.0199 20.1902 20.1999 22.2302 15.7999 22.2302H8.1799C3.7799 22.2302 2.9599 20.1902 2.7599 18.2002L2.1499 11.6902C2.1599 11.7002 2.1699 11.7102 2.1899 11.7202C2.5299 11.9402 2.8599 12.1602 3.2199 12.3602C3.3599 12.4502 3.5099 12.5302 3.6599 12.6102C4.7899 13.2302 5.9999 13.7202 7.2499 14.0602C7.7499 14.2102 8.2599 14.3202 8.7799 14.4102C8.9799 16.0102 10.3499 17.2502 11.9999 17.2502C13.6699 17.2502 15.0499 15.9802 15.2299 14.3502V14.3402C15.7399 14.2402 16.2499 14.1102 16.7499 13.9602C17.9999 13.5702 19.2099 13.0502 20.3399 12.3902C20.3999 12.3602 20.4499 12.3302 20.4899 12.3002C20.9499 12.0502 21.3899 11.7602 21.8099 11.4602C21.8299 11.4502 21.8399 11.4302 21.8499 11.4102Z" />
<path d="M21.09 6.98002C20.24 6.04002 18.83 5.57002 16.76 5.57002H16.52V5.53002C16.52 3.85002 16.52 1.77002 12.76 1.77002H11.24C7.48004 1.77002 7.48004 3.85002 7.48004 5.53002V5.57002H7.24004C5.17004 5.57002 3.75004 6.04002 2.91004 6.98002C1.92004 8.09002 1.95004 9.56002 2.05004 10.57L2.06004 10.64L2.15004 11.69C2.16004 11.7 2.18004 11.71 2.20004 11.72C2.54004 11.94 2.87004 12.16 3.23004 12.36C3.37004 12.45 3.52004 12.53 3.67004 12.61C4.80004 13.23 6.01004 13.72 7.25004 14.06C7.28004 16.65 9.40004 18.75 12 18.75C14.62 18.75 16.75 16.62 16.75 14V13.96C18.01 13.58 19.22 13.05 20.35 12.39C20.41 12.36 20.45 12.33 20.5 12.3C20.96 12.05 21.4 11.76 21.82 11.46C21.83 11.45 21.85 11.43 21.86 11.41L21.9 11.05L21.95 10.58C21.96 10.52 21.96 10.47 21.97 10.4C22.05 9.40002 22.03 8.02002 21.09 6.98002ZM8.91004 5.53002C8.91004 3.83002 8.91004 3.19002 11.24 3.19002H12.76C15.09 3.19002 15.09 3.83002 15.09 5.53002V5.57002H8.91004V5.53002ZM12 17.25C10.35 17.25 8.98004 16.01 8.78004 14.41C8.76004 14.28 8.75004 14.14 8.75004 14C8.75004 12.21 10.21 10.75 12 10.75C13.79 10.75 15.25 12.21 15.25 14C15.25 14.12 15.24 14.23 15.23 14.34V14.35C15.05 15.98 13.67 17.25 12 17.25Z" />
<path d="M11.4299 16.0299C11.2399 16.0299 11.0499 15.9599 10.8999 15.8099L9.90988 14.8299C9.61988 14.5399 9.61988 14.0599 9.90988 13.7699C10.1999 13.4799 10.6799 13.4799 10.9699 13.7699L11.4499 14.2499L13.0599 12.7699C13.3599 12.4899 13.8399 12.5099 14.1199 12.8099C14.3999 13.1099 14.3799 13.5899 14.0799 13.8699L11.9499 15.8399C11.7899 15.9599 11.6099 16.0299 11.4299 16.0299Z" />
</svg>

<?xml version="1.0" encoding="UTF-8"?>
<svg width="24" height="24" viewBox="0 0 24 24" xmlns="http://www.w3.org/2000/svg">
 <path d="m21.85 11.41-0.62 6.78c-0.21 2-1.03 4.04-5.43 4.04h-7.62c-4.4 0-5.22-2.04-5.42-4.03l-0.61-6.51c0.01 0.01 0.02 0.02 0.04 0.03 0.34 0.22 0.67 0.44 1.03 0.64 0.14 0.09 0.29 0.17 0.44 0.25 1.13 0.62 2.34 1.11 3.59 1.45 0.5 0.15 1.01 0.26 1.53 0.35 0.2 1.6 1.57 2.84 3.22 2.84 1.67 0 3.05-1.27 3.23-2.9v-0.01c0.51-0.1 1.02-0.23 1.52-0.38 1.25-0.39 2.46-0.91 3.59-1.57 0.06-0.03 0.11-0.06 0.15-0.09 0.46-0.25 0.9-0.54 1.32-0.84 0.02-0.01 0.03-0.03 0.04-0.05z" opacity=".4"/>
 <path d="m21.09 6.98c-0.85-0.94-2.26-1.41-4.33-1.41h-0.24v-0.04c0-1.68 0-3.76-3.76-3.76h-1.52c-3.76 0-3.76 2.08-3.76 3.76v0.04h-0.24c-2.07 0-3.49 0.47-4.33 1.41-0.99 1.11-0.96 2.58-0.86 3.59l0.01 0.07 0.09 1.05c0.01 0.01 0.03 0.02 0.05 0.03 0.34 0.22 0.67 0.44 1.03 0.64 0.14 0.09 0.29 0.17 0.44 0.25 1.13 0.62 2.34 1.11 3.58 1.45 0.03 2.59 2.15 4.69 4.75 4.69 2.62 0 4.75-2.13 4.75-4.75v-0.04c1.26-0.38 2.47-0.91 3.6-1.57 0.06-0.03 0.1-0.06 0.15-0.09 0.46-0.25 0.9-0.54 1.32-0.84 0.01-0.01 0.03-0.03 0.04-0.05l0.04-0.36 0.05-0.47c0.01-0.06 0.01-0.11 0.02-0.18 0.08-0.99998 0.06-2.38-0.88-3.42zm-12.18-1.45c0-1.7 0-2.34 2.33-2.34h1.52c2.33 0 2.33 0.64 2.33 2.34v0.04h-6.18v-0.04zm3.09 11.72c-1.65 0-3.02-1.24-3.22-2.84-0.02-0.13-0.03-0.27-0.03-0.41 0-1.79 1.46-3.25 3.25-3.25s3.25 1.46 3.25 3.25c0 0.12-0.01 0.23-0.02 0.34v0.01c-0.18 1.63-1.56 2.9-3.23 2.9z"/>
 <path d="m11.43 16.03c-0.19 0-0.38-0.07-0.53-0.22l-0.99002-0.98c-0.29-0.29-0.29-0.77 0-1.06 0.29002-0.29 0.77002-0.29 1.06 0l0.48 0.48 1.61-1.48c0.3-0.28 0.78-0.26 1.06 0.04s0.26 0.78-0.04 1.06l-2.13 1.97c-0.16 0.12-0.34 0.19-0.52 0.19z"/>
</svg>
